X:1
T:Title
%%score { ( 1 2 ) | ( 3 4 ) }
L:1/8
M:6/8
K:F
V:1 treble nm="Grand Piano"
V:2 treble 
V:3 bass 
V:4 bass 
V:1
 z3 z z[Q:1/4=100] z/ G/ | A>AA AGF | [EG]3- [EG]2 [EG]/[FA]/ | [GB]>[GB][GB] [GB][FA][EG] | %4
 A3- A2 A/B/ | c>cc FGA | [DB]>[DB][DB] [DB]2 [Fd] | [Fc]>[DGB][CFA] [CFA][CFA]>[B,EG] | %8
[M:5/8] [A,F]-[A,F]- [A,F]3 |[M:1/8] [A,F] |[M:3/4] [EG]>[EG] [EG][EG]/[Ec]/- [Ec][GB] | [FA]6 | %12
 c>d cF G[FA] | [EG]6 | A>A A A2 A/A/ | B>B B B2 [Fd] | [Fc]>[DGB] [FA][FA] [FA]>G | %17
[M:5/8] F-F- F3 |] %18
V:2
 z3 z2 F | x6 | x6 | x6 | x6 | x6 | x6 | x6 |[M:5/8] x5 |[M:1/8] x |[M:3/4] x6 | z2 C C2 A/B/ | %12
 x6 | z2 C C2 [CEG] | x6 | x6 | x6 |[M:5/8] x5 |] %18
V:3
 z3 z2 A,/B,/ | [F,CF]>[F,CF][F,CF] [F,CF][F,B,C][F,A,C] | [C,C]3- [C,C]2 [C,C] | %3
 [C,C]>[C,C][C,C] [C,C][C,C][C,C] | [F,CF]3- [F,CF]2 F/G/ | %5
 [F,A,F]>[K:bass][F,A,F][F,A,F] [F,A,][F,B,E][F,C_E] | [B,,B,]>[B,,F,][B,,F,] [B,,F,]2 [B,,B,] | %7
 [C,A,]>C,C, C,C,>C, |[M:5/8] F,-F,- F,3 |[M:1/8] F, | %10
[M:3/4] [C,C]>[C,C] [C,C][C,C]/[C,G,]/- [C,G,][C,C] | [F,C]2 F, F,2[K:treble] F/G/ | %12
 [F,A,F]>[F,B,F] [F,A,F][K:bass][F,A,C] [E,B,C][D,=B,] | [C,C]2 C, C,2 C, | %14
 [F,CF]>[F,CF] [F,CF] [F,_EF]2 [F,EF]/[F,EF]/ | [B,DF]>[B,DF] [B,DF] [B,DF]2[K:bass] [B,,B,] | %16
 [C,A,]>C, [C,C][C,C] [C,C]>[B,E] |[M:5/8] [F,A,C]-[F,A,C]- [F,A,C]3 |] %18
V:4
 z3 z2 F, | x6 | x6 | x6 | z3 z2 [F,C] | x3/2[K:bass] x9/2 | x6 | x6 |[M:5/8] x5 |[M:1/8] x | %10
[M:3/4] x6 | z2 z2 z[K:treble] [F,C] | x3[K:bass] x3 | x6 | x6 | x5[K:bass] x | x6 |[M:5/8] x5 |] %18

